X:546
T:Reel 546
M:4/4
K:Dmaj
L:1/8
dB|AFdB AFDF|AFAB A2de|f>d (3dcB AFDF|Eeef e2dB|AFDF ABdB|AFdF A2EF|G2BG AFDF|FGEF D2| (3ABc |dcdB c2dc|dcdB A2FD|GFGA B2AF|GEFG E2d2|dcdB A2FA|dcdB A2FE|D2FG A2DF|EDEF D2|
